X: 275
T:O virgo prudentissima / Beata mater / Audi virgo puerpera
N: Derived from Jos2409-O_virgo_prudentissima.krn
C: Josquin des Prez
%%abc-version 2.0
%%abcx-abcm2ps-target-version 5.9.1 (29 Sep 2008)
%%abc-creator hum2abc beta
%%abcx-conversion-date 2019/02/12 16:15:52
%%abc-edited-by Jesse Rodin
%%abc-edited-by Jesse Rodin; Victoria Chang 2011/05/22; JR 2012/02 text
%%abcx-initial-encoding-date 2013/03/08/
%%humdrum-veritas 1173738251
%%humdrum-veritas-data 1302129229
%%linebreak <none>
%%barnumbers 0
L: 1/4
M: 2/1
Q: 1/2=120
V: 1 clef=treble
V: 2 clef=treble-8
V: 3 clef=treble-8
V: 4 clef=treble-8
V: 5 clef=treble-8
V: 6 clef=bass
K: F
[V:1] G8 | 
[V:2] z4G4- | 
[V:3] z8 | 
[V:4] z8 | 
[V:5] z8 | 
[V:6] z8 | 
[V:1] G4G4 | 
[V:2] G4G4 | 
[V:3] z8 | 
[V:4] z8 | 
[V:5] z8 | 
[V:6] z8 | 
[V:1] B4G4 | 
[V:2] G4B4 | 
[V:3] G8 | 
[V:4] z8 | 
[V:5] z8 | 
[V:6] z8 | 
[V:1] B6c2 | 
[V:2] G4B4- | 
[V:3] G4G4 | 
[V:4] z8 | 
[V:5] z8 | 
[V:6] z8 | 
[V:1] d8- | 
[V:2] B2AGB3c | 
[V:3] B4G4 | 
[V:4] z8 | 
[V:5] z8 | 
[V:6] G,,8 | 
[V:1] d8 | 
[V:2] d2G4FE | 
[V:3] B6c2 | 
[V:4] z8 | 
[V:5] z8 | 
[V:6] G,,4G,,4 | 
[V:1] z8 | 
[V:2] D8 | 
[V:3] d4z2d2- | 
[V:4] z8 | 
[V:5] z8 | 
[V:6] B,,4G,,4 | 
[V:1] z8 | 
[V:2] d8 | 
[V:3] dcB4AG | 
[V:4] z8 | 
[V:5] z8 | 
[V:6] B,,6C,2 | 
[V:1] z4A4 | 
[V:2] z4f4 | 
[V:3] F8 | 
[V:4] z8 | 
[V:5] z8 | 
[V:6] D,8- | 
[V:1] A4A4 | 
[V:2] f4f4 | 
[V:3] z8 | 
[V:4] z8 | 
[V:5] z8 | 
[V:6] D,8 | 
[V:1] B4A2B2 | 
[V:2] g4f2g2 | 
[V:3] z8 | 
[V:4] z8 | 
[V:5] z8 | 
[V:6] z8 | 
[V:1] A2B4AG | 
[V:2] f2g4fe | 
[V:3] z8 | 
[V:4] z8 | 
[V:5] z8 | 
[V:6] z8 | 
[V:1] A8 | 
[V:2] f8 | 
[V:3] d8 | 
[V:4] z8 | 
[V:5] z8 | 
[V:6] z4D,4 | 
[V:1] z8 | 
[V:2] z8 | 
[V:3] c4A4 | 
[V:4] z8 | 
[V:5] z8 | 
[V:6] F,4F,4 | 
[V:1] z8 | 
[V:2] z8 | 
[V:3] B4A2B2 | 
[V:4] z8 | 
[V:5] z8 | 
[V:6] G,4F,2G,2 | 
[V:1] z8 | 
[V:2] z8 | 
[V:3] A2B4AG | 
[V:4] z8 | 
[V:5] z8 | 
[V:6] F,2G,4F,E, | 
[V:1] z4A4 | 
[V:2] z4f4 | 
[V:3] A8 | 
[V:4] z8 | 
[V:5] z8 | 
[V:6] D,8 | 
[V:1] B4A2B2- | 
[V:2] g4f2g2- | 
[V:3] z8 | 
[V:4] z8 | 
[V:5] z8 | 
[V:6] z8 | 
[V:1] B2AGB2A2 | 
[V:2] g2fed2f2 | 
[V:3] z8 | 
[V:4] z8 | 
[V:5] z8 | 
[V:6] z8 | 
[V:1] G2F2E4 | 
[V:2] e2d4^c2 | 
[V:3] z4A4 | 
[V:4] z8 | 
[V:5] z8 | 
[V:6] z8 | 
[V:1] D8 | 
[V:2] d8 | 
[V:3] B4A2B2- | 
[V:4] z8 | 
[V:5] z8 | 
[V:6] z4D,4 | 
[V:1] z8 | 
[V:2] z8 | 
[V:3] B2AGB2A2 | 
[V:4] z8 | 
[V:5] z8 | 
[V:6] _E,4D,4 | 
[V:1] z8 | 
[V:2] z8 | 
[V:3] GABcd2e2- | 
[V:4] z8 | 
[V:5] z8 | 
[V:6] G,6G,2 | 
[V:1] z8 | 
[V:2] z8 | 
[V:3] edd4^c2 | 
[V:4] z8 | 
[V:5] z8 | 
[V:6] F,3D,E,4 | 
[V:1] z4A4 | 
[V:2] z4f4 | 
[V:3] d8 | 
[V:4] z8 | 
[V:5] z8 | 
[V:6] D,8 | 
[V:1] B4B4 | 
[V:2] g4g4 | 
[V:3] z8 | 
[V:4] z8 | 
[V:5] z8 | 
[V:6] z8 | 
[V:1] A3cB2A2- | 
[V:2] f3ed2c2 | 
[V:3] z8 | 
[V:4] z8 | 
[V:5] z8 | 
[V:6] z8 | 
[V:1] AGG3^FFE | 
[V:2] B3GA4 | 
[V:3] z4A4 | 
[V:4] z8 | 
[V:5] z8 | 
[V:6] z4D,4 | 
[V:1] G8 | 
[V:2] G8 | 
[V:3] B4B4 | 
[V:4] z8 | 
[V:5] z8 | 
[V:6] G,4G,4 | 
[V:1] z8 | 
[V:2] z8 | 
[V:3] A3cB2A2- | 
[V:4] z8 | 
[V:5] z8 | 
[V:6] F,3E,D,2C,2 | 
[V:1] z8 | 
[V:2] z8 | 
[V:3] A2G3^F^FE | 
[V:4] z8 | 
[V:5] z8 | 
[V:6] B,,3G,,A,,4 | 
[V:1] z8 | 
[V:2] z4d4 | 
[V:3] G8 | 
[V:4] z8 | 
[V:5] z8 | 
[V:6] G,,8- | 
[V:1] z4d4 | 
[V:2] d4G4 | 
[V:3] z2d2d4 | 
[V:4] z8 | 
[V:5] G8 | 
[V:6] G,,8 | 
[V:1] d4G4 | 
[V:2] z2d2d4 | 
[V:3] G4z2d2 | 
[V:4] z8 | 
[V:5] G8 | 
[V:6] z8 | 
[V:1] d4d2d2- | 
[V:2] G4d2G2 | 
[V:3] d4G2B2- | 
[V:4] d8 | 
[V:5] B8 | 
[V:6] z4G,4 | 
[V:1] dcBAB2B2 | 
[V:2] B3cd2G2 | 
[V:3] Bcd2G2d2- | 
[V:4] d8 | 
[V:5] G8 | 
[V:6] G,4G,,4 | 
[V:1] A4z4 | 
[V:2] A2D2F2D2 | 
[V:3] d2cBA2B2- | 
[V:4] f8 | 
[V:5] F8 | 
[V:6] D,4D,2D,2- | 
[V:1] z8 | 
[V:2] FEDCD3E | 
[V:3] BAA4G2 | 
[V:4] d8 | 
[V:5] z8 | 
[V:6] D,C,B,,A,,B,,2B,,2 | 
[V:1] z8 | 
[V:2] F3GE4 | 
[V:3] A4z2c2 | 
[V:4] c8 | 
[V:5] z8 | 
[V:6] A,,8 | 
[V:1] z4z2d2 | 
[V:2] z2d2d4 | 
[V:3] d4G4 | 
[V:4] z8 | 
[V:5] G8 | 
[V:6] z8 | 
[V:1] d4G4 | 
[V:2] G4z2d2 | 
[V:3] z2d2d4 | 
[V:4] z8 | 
[V:5] G4G4 | 
[V:6] z8 | 
[V:1] d4d2d2- | 
[V:2] d4G4- | 
[V:3] G4d2G2 | 
[V:4] d8 | 
[V:5] B8 | 
[V:6] z4G,4 | 
[V:1] dcBAB2B2 | 
[V:2] G4z2d2- | 
[V:3] B3cd2G2 | 
[V:4] d4d4 | 
[V:5] G8 | 
[V:6] G,4G,,4 | 
[V:1] A4z4 | 
[V:2] d2cBA2B2- | 
[V:3] A2D2F2D2 | 
[V:4] f8 | 
[V:5] F8 | 
[V:6] D,4D,2D,2- | 
[V:1] z8 | 
[V:2] BAA4G2 | 
[V:3] FEDCD3E | 
[V:4] d8 | 
[V:5] z8 | 
[V:6] D,C,B,,A,,B,,2B,,2 | 
[V:1] z4c4 | 
[V:2] A8 | 
[V:3] F3GE2A2 | 
[V:4] c8 | 
[V:5] z8 | 
[V:6] A,,8 | 
[V:1] d4G4 | 
[V:2] z4c4 | 
[V:3] F2G2E4 | 
[V:4] z8 | 
[V:5] z8 | 
[V:6] z8 | 
[V:1] z2d2d2d2- | 
[V:2] d4G4 | 
[V:3] D4z2d2 | 
[V:4] z8 | 
[V:5] z8 | 
[V:6] z8 | 
[V:1] dcBAB2B2 | 
[V:2] z2d2d2d2- | 
[V:3] d4G4 | 
[V:4] z8 | 
[V:5] z8 | 
[V:6] z8 | 
[V:1] A4d4 | 
[V:2] dcBAB2B2 | 
[V:3] z4z2d2 | 
[V:4] z8 | 
[V:5] z8 | 
[V:6] z8 | 
[V:1] c2A2c4 | 
[V:2] A2F2A4 | 
[V:3] e2f3ec2 | 
[V:4] z8 | 
[V:5] A8 | 
[V:6] z8 | 
[V:1] B3AF2G2- | 
[V:2] G3FD2G2 | 
[V:3] d2G2d4 | 
[V:4] z8 | 
[V:5] B8 | 
[V:6] z8 | 
[V:1] GFEDE4 | 
[V:2] C4z2C2 | 
[V:3] c3BG4 | 
[V:4] e8 | 
[V:5] c8 | 
[V:6] z4C,4 | 
[V:1] D8 | 
[V:2] [M:3/1](3F2D2E2(3F3GA2 | 
[V:3] F8 | 
[V:4] f8 | 
[V:5] B4A4 | 
[V:6] D,4D,4 | 
[V:1] [M:2/1]z8 | 
[V:2] [M:2/1]B2GABcd2- | 
[V:3] [M:2/1]z2B2G2B2 | 
[V:4] [M:2/1]g8 | 
[V:5] [M:2/1]z4G4 | 
[V:6] [M:2/1]G,,2G,,2G,,2G,,2 | 
[V:1] z4z2G2 | 
[V:2] defde2c2 | 
[V:3] A2F2G2E2 | 
[V:4] f4e4 | 
[V:5] A4c4 | 
[V:6] D,4C,3B,, | 
[V:1] G2G2FGAF | 
[V:2] d8 | 
[V:3] G3FD2F2 | 
[V:4] z4d4 | 
[V:5] B2G2A4 | 
[V:6] G,,4z4 | 
[V:1] G8 | 
[V:2] z4z2G2 | 
[V:3] E2CDEFGE | 
[V:4] e4g4 | 
[V:5] G8 | 
[V:6] z2G,2C,2E,2 | 
[V:1] z8 | 
[V:2] A2B2(3c2G2c2 | 
[V:3] F2G2E3F | 
[V:4] f2d2e4 | 
[V:5] z8 | 
[V:6] D,2G,,2C,3B,, | 
[V:1] z8 | 
[V:2] B2G4FE | 
[V:3] G3ABcd2- | 
[V:4] d8 | 
[V:5] z4G4 | 
[V:6] G,,8 | 
[V:1] z4z2G2 | 
[V:2] D4C4 | 
[V:3] defde2c2 | 
[V:4] z8 | 
[V:5] A4c4 | 
[V:6] z8 | 
[V:1] G2G2FGAF | 
[V:2] G3FD2F2 | 
[V:3] d8 | 
[V:4] z4d4 | 
[V:5] B2G2A4 | 
[V:6] z8 | 
[V:1] G8 | 
[V:2] E2CDEFGE | 
[V:3] z4z2G2 | 
[V:4] e4g4 | 
[V:5] G8 | 
[V:6] z2G,2C,2E,2 | 
[V:1] z8 | 
[V:2] F2G2E3F | 
[V:3] A2B2G2c2 | 
[V:4] f2d2e4 | 
[V:5] z8 | 
[V:6] D,2G,,2C,3B,, | 
[V:1] [M:3/1]d4d4B4 | 
[V:2] [M:3/1]G12 | 
[V:3] [M:3/1]B8z4 | 
[V:4] [M:3/1]d12 | 
[V:5] [M:3/1]z12 | 
[V:6] [M:3/1]G,,12 | 
[V:1] A4d8 | 
[V:2] z12 | 
[V:3] d4d4B4 | 
[V:4] z12 | 
[V:5] z12 | 
[V:6] z12 | 
[V:1] c4A4B4 | 
[V:2] z12 | 
[V:3] A4d8 | 
[V:4] z12 | 
[V:5] z12 | 
[V:6] z12 | 
[V:1] A8z4 | 
[V:2] z12 | 
[V:3] c4A4B4 | 
[V:4] z12 | 
[V:5] z12 | 
[V:6] z12 | 
[V:1] c4c4A4 | 
[V:2] z12 | 
[V:3] A8z4 | 
[V:4] z12 | 
[V:5] z12 | 
[V:6] z12 | 
[V:1] G4c8 | 
[V:2] z12 | 
[V:3] c4c4A4 | 
[V:4] z12 | 
[V:5] z12 | 
[V:6] z12 | 
[V:1] B4G4A4 | 
[V:2] z12 | 
[V:3] G4c8 | 
[V:4] z12 | 
[V:5] z12 | 
[V:6] z12 | 
[V:1] G8z4 | 
[V:2] z12 | 
[V:3] B4G4A4 | 
[V:4] z12 | 
[V:5] z12 | 
[V:6] z12 | 
[V:1] d4d4B4 | 
[V:2] z12 | 
[V:3] G8z4 | 
[V:4] z12 | 
[V:5] z12 | 
[V:6] z12 | 
[V:1] A4d8 | 
[V:2] z12 | 
[V:3] d4d4B4 | 
[V:4] z12 | 
[V:5] z12 | 
[V:6] z12 | 
[V:1] c4A4B4 | 
[V:2] z12 | 
[V:3] A4d8 | 
[V:4] z12 | 
[V:5] z12 | 
[V:6] z12 | 
[V:1] A8z4 | 
[V:2] z12 | 
[V:3] c4A4B4 | 
[V:4] z12 | 
[V:5] z12 | 
[V:6] z12 | 
[V:1] c4c4A4 | 
[V:2] z12 | 
[V:3] A8z4 | 
[V:4] z12 | 
[V:5] z12 | 
[V:6] z12 | 
[V:1] G4c8 | 
[V:2] z12 | 
[V:3] c4c4A4 | 
[V:4] z12 | 
[V:5] z12 | 
[V:6] z12 | 
[V:1] B4A6G2 | 
[V:2] z12 | 
[V:3] G4c8 | 
[V:4] z12 | 
[V:5] z12 | 
[V:6] z12 | 
[V:1] G8^F4 | 
[V:2] z12 | 
[V:3] B4G4A4 | 
[V:4] z12 | 
[V:5] z12 | 
[V:6] z12 | 
[V:1] [M:2/1]G8 | 
[V:2] z4z2g2 | 
[V:3] [M:2/1]G8 | 
[V:4] z8 | 
[V:5] z8 | 
[V:6] z8 | 
[V:1] z2d2d2d2 | 
[V:2] g2g2f2d2 | 
[V:3] z8 | 
[V:4] z8 | 
[V:5] z8 | 
[V:6] z8 | 
[V:1] c4B2c2- | 
[V:2] e2f2g2cd | 
[V:3] z8 | 
[V:4] z8 | 
[V:5] z8 | 
[V:6] z8 | 
[V:1] cBAGA2A2 | 
[V:2] efg3^f^fe | 
[V:3] z8 | 
[V:4] z8 | 
[V:5] z8 | 
[V:6] z8 | 
[V:1] G2B4AG | 
[V:2] g2GABcde | 
[V:3] z4G4 | 
[V:4] z8 | 
[V:5] z8 | 
[V:6] z8 | 
[V:1] A8 | 
[V:2] f8 | 
[V:3] d2d2A3B | 
[V:4] z8 | 
[V:5] F8 | 
[V:6] z2D,2D,2D,2 | 
[V:1] z8 | 
[V:2] z8 | 
[V:3] c2C2D2E2- | 
[V:4] z8 | 
[V:5] G8 | 
[V:6] C,4B,,2C,2- | 
[V:1] z4A4 | 
[V:2] z8 | 
[V:3] EFG3^F^FE | 
[V:4] c8 | 
[V:5] c8 | 
[V:6] C,B,,A,,G,,A,,2A,,2 | 
[V:1] B2G2d2G2 | 
[V:2] z4d4 | 
[V:3] G8- | 
[V:4] d8 | 
[V:5] B8- | 
[V:6] G,,8- | 
[V:1] BAGFGABG | 
[V:2] G2d2G2d2- | 
[V:3] G8 | 
[V:4] g8 | 
[V:5] B8 | 
[V:6] G,,8 | 
[V:1] A8 | 
[V:2] d2cBA2d2- | 
[V:3] D8 | 
[V:4] f8- | 
[V:5] A8 | 
[V:6] z4D,4 | 
[V:1] z8 | 
[V:2] dcd2A3B | 
[V:3] F4F2F2 | 
[V:4] f8 | 
[V:5] z8 | 
[V:6] D,4D,4 | 
[V:1] z8 | 
[V:2] c8 | 
[V:3] G4A4 | 
[V:4] e8 | 
[V:5] z4A4 | 
[V:6] C,4A,,4 | 
[V:1] z2A3Bc2 | 
[V:2] f6e2 | 
[V:3] F3GA4 | 
[V:4] z8 | 
[V:5] A4A4 | 
[V:6] D,6C,2 | 
[V:1] d2B2c4- | 
[V:2] d4c4 | 
[V:3] D4E4 | 
[V:4] z4e4 | 
[V:5] B2G2A4 | 
[V:6] B,,4A,,4 | 
[V:1] c2BAG4 | 
[V:2] z2c2c2c2 | 
[V:3] z8 | 
[V:4] e4e4 | 
[V:5] G8 | 
[V:6] C,4C,2C,2 | 
[V:1] F4z2c2 | 
[V:2] AGABc2A2- | 
[V:3] z4E4 | 
[V:4] f2d2e4 | 
[V:5] z8 | 
[V:6] D,4A,,4 | 
[V:1] d6d2 | 
[V:2] AGFED2d2 | 
[V:3] F4F4 | 
[V:4] d8 | 
[V:5] z4A4 | 
[V:6] D,6D,2 | 
[V:1] c4z4 | 
[V:2] e2c2c2A2 | 
[V:3] E3DE2F2 | 
[V:4] z8 | 
[V:5] A4A4 | 
[V:6] A,,3B,,C,2D,2 | 
[V:1] z2B2cAc2- | 
[V:2] d3dc4 | 
[V:3] D4E4- | 
[V:4] z4e4 | 
[V:5] B2G2A4 | 
[V:6] B,,4A,,4 | 
[V:1] c2BAG4 | 
[V:2] z2c2c2c2 | 
[V:3] E4z2E2 | 
[V:4] e4e4 | 
[V:5] G8 | 
[V:6] C,4C,2C,2 | 
[V:1] F2F2G3A | 
[V:2] A4c4 | 
[V:3] D2F2E2C2 | 
[V:4] f2d2e4 | 
[V:5] z8 | 
[V:6] D,4C,3B,, | 
[V:1] BcB4AG | 
[V:2] B2G2B3c | 
[V:3] G4z4 | 
[V:4] d8 | 
[V:5] z4z2G2 | 
[V:6] G,,2G,4F,E, | 
[V:1] F2G4^F2 | 
[V:2] d2c2d4 | 
[V:3] z2C2F3D | 
[V:4] z8 | 
[V:5] A2G2A4 | 
[V:6] D,2_E,2D,4 | 
[V:1] G8- | 
[V:2] B4z2B2 | 
[V:3] _E2D2_E2D2 | 
[V:4] z4z2d2 | 
[V:5] G8- | 
[V:6] G,,8 | 
[V:1] G8- | 
[V:2] c2d2G3A | 
[V:3] z2G2_E2C2 | 
[V:4] _e2d2_e4 | 
[V:5] G8- | 
[V:6] C,2B,,2C,3C, | 
[V:1] G8- | 
[V:2] B8- | 
[V:3] G6G2 | 
[V:4] d8- | 
[V:5] G8- | 
[V:6] G,,8- | 
[V:1] G8 ||  
[V:2] B8 ||  
[V:3] D8 ||  
[V:4] d8 ||  
[V:5] G8 ||  
[V:6] G,,8 ||  
[V:1]  [K:F] [K:clef=treble][M:2/1]z8 | 
[V:2]  [K:F] [K:clef=treble-8][M:2/1]G4G4 | 
[V:3]  [K:F] [K:clef=treble-8][M:2/1]z8 | 
[V:4]  [K:F] [K:clef=treble-8][M:2/1]z8 | 
[V:5]  [K:F] [K:clef=treble-8][M:2/1]z8 | 
[V:6]  [K:F] [K:clef=bass][M:2/1]z8 | 
[V:1] z8 | 
[V:2] z4z2D2 | 
[V:3] z8 | 
[V:4] z8 | 
[V:5] z8 | 
[V:6] G,,4G,,4 | 
[V:1] z8 | 
[V:2] D2D2F3G | 
[V:3] z8 | 
[V:4] z8 | 
[V:5] z8 | 
[V:6] z2D,2D,2D,2 | 
[V:1] z8 | 
[V:2] A2DEFGA2- | 
[V:3] z8 | 
[V:4] z8 | 
[V:5] z8 | 
[V:6] F,3E,D,2C,2 | 
[V:1] z8 | 
[V:2] AGG4^F2 | 
[V:3] z8 | 
[V:4] z8 | 
[V:5] z8 | 
[V:6] B,,2C,2A,,4 | 
[V:1] G4G4 | 
[V:2] G8 | 
[V:3] z8 | 
[V:4] z8 | 
[V:5] z8 | 
[V:6] G,,8 | 
[V:1] z4z2D2 | 
[V:2] z8 | 
[V:3] G4G4 | 
[V:4] z8 | 
[V:5] z8 | 
[V:6] z8 | 
[V:1] D2D2F3G | 
[V:2] z8 | 
[V:3] z2d2d2d2 | 
[V:4] z8 | 
[V:5] z8 | 
[V:6] z8 | 
[V:1] A2DEFGA2- | 
[V:2] z8 | 
[V:3] f3ed2c2 | 
[V:4] z8 | 
[V:5] z8 | 
[V:6] z8 | 
[V:1] AGG4^F2 | 
[V:2] z8 | 
[V:3] B3GA2A2 | 
[V:4] z8 | 
[V:5] z8 | 
[V:6] z8 | 
[V:1] G8 | 
[V:2] z2B2B2B2 | 
[V:3] G8 | 
[V:4] z8 | 
[V:5] z8 | 
[V:6] z4z2G,2 | 
[V:1] z8 | 
[V:2] B4A2f2- | 
[V:3] z8 | 
[V:4] z8 | 
[V:5] z8 | 
[V:6] G,2G,2F,2D,2 | 
[V:1] z8 | 
[V:2] fed3^c^c=B | 
[V:3] z8 | 
[V:4] z8 | 
[V:5] z8 | 
[V:6] F,3G,E,4 | 
[V:1] z2A2B2A2 | 
[V:2] d8 | 
[V:3] z4z2d2 | 
[V:4] z8 | 
[V:5] z8 | 
[V:6] D,8 | 
[V:1] B4A2c2- | 
[V:2] z8 | 
[V:3] d2d2c2A2 | 
[V:4] z8 | 
[V:5] z8 | 
[V:6] z8 | 
[V:1] cBA3GGF | 
[V:2] z8 | 
[V:3] c3dB4 | 
[V:4] z8 | 
[V:5] z8 | 
[V:6] z8 | 
[V:1] A8 | 
[V:2] z4D4 | 
[V:3] A8 | 
[V:4] z8 | 
[V:5] z8 | 
[V:6] D,4F,4 | 
[V:1] z8 | 
[V:2] F4z2D2 | 
[V:3] z8 | 
[V:4] z8 | 
[V:5] z8 | 
[V:6] z2D,2F,4- | 
[V:1] z8 | 
[V:2] F2G2A2c2- | 
[V:3] z8 | 
[V:4] z8 | 
[V:5] z8 | 
[V:6] F,2E,2D,2C,2 | 
[V:1] z8 | 
[V:2] cBB4A2 | 
[V:3] z8 | 
[V:4] z8 | 
[V:5] z8 | 
[V:6] D,3_E,C,4 | 
[V:1] z4D4 | 
[V:2] B8 | 
[V:3] d4f4 | 
[V:4] z8 | 
[V:5] z8 | 
[V:6] B,,8 | 
[V:1] F4z2D2 | 
[V:2] z8 | 
[V:3] z2d2f4- | 
[V:4] z8 | 
[V:5] z8 | 
[V:6] z8 | 
[V:1] F2G2A2c2- | 
[V:2] z8 | 
[V:3] f2e2d2c2 | 
[V:4] z8 | 
[V:5] z8 | 
[V:6] z8 | 
[V:1] cBB4A2 | 
[V:2] z8 | 
[V:3] d3_ec4 | 
[V:4] z8 | 
[V:5] z8 | 
[V:6] z4F,4 | 
[V:1] B8 | 
[V:2] z8 | 
[V:3] B4z2B2 | 
[V:4] z8 | 
[V:5] z8 | 
[V:6] G,4G,4 | 
[V:1] z8 | 
[V:2] z8 | 
[V:3] c4c4 | 
[V:4] z8 | 
[V:5] z8 | 
[V:6] E,4C,2F,2- | 
[V:1] z8 | 
[V:2] z8 | 
[V:3] A4F2B2- | 
[V:4] z8 | 
[V:5] z8 | 
[V:6] F,E,D,C,D,4 | 
[V:1] z8 | 
[V:2] z8 | 
[V:3] BAG3^F^FE | 
[V:4] z8 | 
[V:5] z8 | 
[V:6] B,,2C,2A,,4 | 
[V:1] z4B4 | 
[V:2] d4g2g2 | 
[V:3] G8 | 
[V:4] z8 | 
[V:5] z8 | 
[V:6] G,,4z2G,2 | 
[V:1] c4c4 | 
[V:2] e4c2f2- | 
[V:3] z8 | 
[V:4] z8 | 
[V:5] z8 | 
[V:6] A,4A,4 | 
[V:1] A4F2B2- | 
[V:2] fedcd4 | 
[V:3] z8 | 
[V:4] z8 | 
[V:5] z8 | 
[V:6] F,4D,2G,2- | 
[V:1] BAG3^FFE | 
[V:2] B2c2A4 | 
[V:3] z8 | 
[V:4] z8 | 
[V:5] z8 | 
[V:6] G,2C,2D,4 | 
[V:1] G4z2G2 | 
[V:2] G3AB2G2 | 
[V:3] z8 | 
[V:4] z8 | 
[V:5] z4G4 | 
[V:6] G,,8 | 
[V:1] G2B3AF2 | 
[V:2] d4z4 | 
[V:3] z2G2G2B2- | 
[V:4] z8 | 
[V:5] G4B4- | 
[V:6] z8 | 
[V:1] G2A2B4 | 
[V:2] d4d4 | 
[V:3] BAF2G4 | 
[V:4] z4d4 | 
[V:5] B2A2G4 | 
[V:6] z8 | 
[V:1] A8 | 
[V:2] f3ed2c2 | 
[V:3] D4z2A2- | 
[V:4] d4f4- | 
[V:5] F8 | 
[V:6] z2D,2D,2F,2- | 
[V:1] z4z2A2 | 
[V:2] d2e2f4 | 
[V:3] ABc2F4 | 
[V:4] f2e2d4 | 
[V:5] z8 | 
[V:6] F,E,C,2D,4 | 
[V:1] c4c4 | 
[V:2] e8- | 
[V:3] z2A2c4 | 
[V:4] c8 | 
[V:5] z8 | 
[V:6] A,,4z2A,,2 | 
[V:1] G4z2G2 | 
[V:2] e8 | 
[V:3] c4G4 | 
[V:4] z8 | 
[V:5] G4G4 | 
[V:6] C,4C,4 | 
[V:1] G2B3AF2 | 
[V:2] z4d4 | 
[V:3] z2G2G2B2- | 
[V:4] z8 | 
[V:5] G4B4- | 
[V:6] G,,4z4 | 
[V:1] G2A2B4 | 
[V:2] d4d4 | 
[V:3] BAF2G4 | 
[V:4] d4d4 | 
[V:5] B2A2G4 | 
[V:6] z8 | 
[V:1] A8 | 
[V:2] f3ed2c2 | 
[V:3] D4z2A2- | 
[V:4] d4f4- | 
[V:5] F8 | 
[V:6] z2D,2D,2F,2- | 
[V:1] z8 | 
[V:2] d2e2f4 | 
[V:3] ABc2F3G | 
[V:4] f2e2d4 | 
[V:5] z8 | 
[V:6] F,E,C,2D,4 | 
[V:1] z4c4 | 
[V:2] e8 | 
[V:3] A2cBAGA2- | 
[V:4] c8 | 
[V:5] z8 | 
[V:6] A,,8- | 
[V:1] c4c4 | 
[V:2] z2e2e2e2 | 
[V:3] A2GFE2A2 | 
[V:4] z8 | 
[V:5] z8 | 
[V:6] A,,8 | 
[V:1] d3cB2A2- | 
[V:2] f3ed2c2 | 
[V:3] D2B3AF2 | 
[V:4] z8 | 
[V:5] z8 | 
[V:6] z8 | 
[V:1] AGG4^F2 | 
[V:2] B3GA2A2 | 
[V:3] G2E2D4 | 
[V:4] z8 | 
[V:5] z8 | 
[V:6] z8 | 
[V:1] G4B4 | 
[V:2] G8 | 
[V:3] z2d2G2d2 | 
[V:4] z8 | 
[V:5] z8 | 
[V:6] z4G,4 | 
[V:1] B4B4 | 
[V:2] z2d2G2d2 | 
[V:3] GABcd2G2 | 
[V:4] z8 | 
[V:5] z8 | 
[V:6] G,4G,4 | 
[V:1] c6B2 | 
[V:2] c2ABcde2- | 
[V:3] z2c3AB2 | 
[V:4] z8 | 
[V:5] z8 | 
[V:6] A,6G,2 | 
[V:1] A2F2G4 | 
[V:2] edd4^c2 | 
[V:3] c2d2G4 | 
[V:4] z8 | 
[V:5] z8 | 
[V:6] F,3D,E,4 | 
[V:1] F8 | 
[V:2] d8 | 
[V:3] A8 | 
[V:4] z8 | 
[V:5] z4A4 | 
[V:6] D,8 | 
[V:1] D4E4 | 
[V:2] z8 | 
[V:3] z8 | 
[V:4] z8 | 
[V:5] B4c4 | 
[V:6] z4C,4 | 
[V:1] D4G4 | 
[V:2] z2d2c2c2 | 
[V:3] z8 | 
[V:4] z4e4 | 
[V:5] B4z2G2 | 
[V:6] G,2D,2E,4 | 
[V:1] z8 | 
[V:2] d4z4 | 
[V:3] z2d2B2c2 | 
[V:4] f4g4 | 
[V:5] A2B4G2 | 
[V:6] F,2B,,2_E,2E,2 | 
[V:1] z4z2d2 | 
[V:2] z2A2B2B2 | 
[V:3] d4z4 | 
[V:4] f4z2d2 | 
[V:5] A4G4 | 
[V:6] D,4G,,4 | 
[V:1] cBAGADd2- | 
[V:2] A4D4 | 
[V:3] z2A2F2B2 | 
[V:4] e2f4d2 | 
[V:5] z8 | 
[V:6] z8 | 
[V:1] d2^c2d4 | 
[V:2] z8 | 
[V:3] A4DEFG | 
[V:4] e4d4 | 
[V:5] z8 | 
[V:6] z8 | 
[V:1] z8 | 
[V:2] D4D2D2 | 
[V:3] A2B4AG | 
[V:4] z8 | 
[V:5] z8 | 
[V:6] z8 | 
[V:1] z8 | 
[V:2] F2D2F3G | 
[V:3] A4z4 | 
[V:4] z8 | 
[V:5] z8 | 
[V:6] D,4D,2D,2 | 
[V:1] z8 | 
[V:2] A2B2A4 | 
[V:3] D4D2D2 | 
[V:4] z8 | 
[V:5] z8 | 
[V:6] F,2D,2F,3G, | 
[V:1] z8 | 
[V:2] z4z2D2 | 
[V:3] F2D2F3G | 
[V:4] z8 | 
[V:5] z8 | 
[V:6] A,2B,2A,4 | 
[V:1] z8 | 
[V:2] F2D2F3G | 
[V:3] A2B2A2d2 | 
[V:4] z8 | 
[V:5] z8 | 
[V:6] D,4D,2D,2 | 
[V:1] z8 | 
[V:2] A2D3EF2 | 
[V:3] c2A2B2A2 | 
[V:4] z8 | 
[V:5] z8 | 
[V:6] F,3E,D,C,D,2 | 
[V:1] z4z2A2 | 
[V:2] D2E2C4 | 
[V:3] B2G2A4 | 
[V:4] z8 | 
[V:5] z4F4 | 
[V:6] B,,2C,2A,,4 | 
[V:1] B2G2A4 | 
[V:2] D4z2A2 | 
[V:3] z4F4 | 
[V:4] z8 | 
[V:5] G4c4 | 
[V:6] G,,4z4 | 
[V:1] G4z2A2 | 
[V:2] B2G2A4 | 
[V:3] G4c4 | 
[V:4] z4c4 | 
[V:5] B4A4 | 
[V:6] z8 | 
[V:1] B2G2B4 | 
[V:2] G4z2d2 | 
[V:3] B6AG | 
[V:4] d4g4 | 
[V:5] z8 | 
[V:6] G,,6G,,2 | 
[V:1] A4z2A2- | 
[V:2] d4c4 | 
[V:3] A2D2E2C2 | 
[V:4] f4e4 | 
[V:5] z2A2A2A2 | 
[V:6] D,4A,,4 | 
[V:1] AGG3^FFE | 
[V:2] d4z2d2 | 
[V:3] G4D4 | 
[V:4] z8 | 
[V:5] B2G2A4 | 
[V:6] z8 | 
[V:1] G8 | 
[V:2] B2G2c4 | 
[V:3] z4z2G2 | 
[V:4] z2e2e2e2 | 
[V:5] G8 | 
[V:6] z2C,2C,2C,2 | 
[V:1] z8 | 
[V:2] A2B2G4 | 
[V:3] F2G2E3F | 
[V:4] f2d2e4 | 
[V:5] z4c4 | 
[V:6] D,2B,,2C,3B,, | 
[V:1] z8 | 
[V:2] z4d4 | 
[V:3] G4z4 | 
[V:4] d8 | 
[V:5] B4A2B2- | 
[V:6] G,,2G,2F,2G,2- | 
[V:1] z8 | 
[V:2] B4c4 | 
[V:3] z2G2G2C2 | 
[V:4] z4g4 | 
[V:5] BAGFG4 | 
[V:6] G,F,E,D,E,4 | 
[V:1] z4z2A2 | 
[V:2] d2A2c2F2- | 
[V:3] F4z4 | 
[V:4] f4e2f2- | 
[V:5] A4z4 | 
[V:6] D,4z2D,2- | 
[V:1] d4d4 | 
[V:2] FGA2D4 | 
[V:3] A6A2 | 
[V:4] fedcd4 | 
[V:5] z8 | 
[V:6] D,2D,2D,4 | 
[V:1] c3BAGA2- | 
[V:2] A8 | 
[V:3] A4E2F2- | 
[V:4] e4z4 | 
[V:5] z2c2c2c2- | 
[V:6] A,,8 | 
[V:1] AGG3^FFE | 
[V:2] z4d4 | 
[V:3] F2G2D4 | 
[V:4] z8 | 
[V:5] cBAGA4 | 
[V:6] z8 | 
[V:1] G8- | 
[V:2] B2c2G2c2- | 
[V:3] G2C2E2C2 | 
[V:4] z2g2g2g2- | 
[V:5] G8- | 
[V:6] z4C,4- | 
[V:1] G8- | 
[V:2] c2c2c4 | 
[V:3] G4z2G2- | 
[V:4] gfede4 | 
[V:5] G8- | 
[V:6] C,2C,2C,4 | 
[V:1] G8- | 
[V:2] B8- | 
[V:3] G2G2G4 | 
[V:4] d8- | 
[V:5] G8- | 
[V:6] G,,8 | 
[V:1] G8 |]  
[V:2] B8 |]  
[V:3] D8 |]  
[V:4] d8 |]  
[V:5] G8 |]  
[V:6] G,,8 |]  



